X: 41694
T: Valentia
R: jig
M: 6/8
K: Edorian
|:~D3 DFA|d2f edB|AdA BAF|EFE EDE|
FDD DFA|d2f edB|A2b afd|1 efe dAF:|2 efe dfa||
|:~b3 baf|afd edB|Add dfa|baf efa|
[1 ~b3 baf|afd edB|Adf afd|efe dfa:|
[2 baf afe|dfd BdB|Adf afd|efe dAF||

